X:375
T: Jer the Rigger
T: Thadelo's #2
S: "Johnny O'Leary of Sliabh Luachra" (#113)
N: Normally played as a polka
Z: B.Black
L: 1/8
M: 4/4
R: hornpipe
K: Amix
e2 A2 e2 A2|efed cdBc|Addc defg|a3f e2-e2|
(3efe A2 e2 A2|efed (3cdc A2|d2 fd c2 ec|\
BABd A4 :|
a2 ea fe (3cde|a2 eg fecB|Addc defg|a3f e3f|
a2 ae fe (3cde|a2 eg fecB|d2 fd c2 ec|BA (3Bcd A4 :|
